!!!COM: Gonzaga, Francisca
!!!CDT: 1847/10/17-1935/02/28
!!!OTL: Bijou
**kern	**kern	**dynam
*part2	*part1	*part1
*staff2	*staff1	*
*clefF4	*clefG2	*
*k[b-]	*k[b-]	*
*M2/4	*M2/4	*
=1	=1	=1
*F:	*F:	*
!LO:TX:a:t=Batuque	!LO:TX:a:B:t=Allegretto	!
16CCKL 16C	2r	.
8CC 8C	.	.
16CCJk 16C	.	.
16CCKL 16C	.	.
8CC 8C	.	.
16CCJk 16C	.	.
=2	=2	=2
16CCKL 16C	16r	.
8CC 8C	(16ELL	.
.	16G	.
16CCJk 16C	16B-JJ	.
16CCKL 16C	16cLL	.
8CC 8C	16e	.
.	16g	.
16CCJk 16C	16b-JJ)	.
=3	=3	=3
16CCKL 16C	(16aLL	.
8CC 8C	16cc	.
.	16f	.
16CCJk 16C	16aJJ)	.
16CCKL 16C	4c^	.
8CC 8C	.	.
16CCJk 16C	.	.
=4	=4	=4
16CCKL 16C	16r	.
8CC 8C	(16dLL	.
.	16f	.
16CCJk 16C	16a-XJJ)	.
16CCKL 16C	(16bnLL	.
8CC 8C	16dd	.
.	16ff	.
16CCJk 16C	16aa-XJJ)	.
=5	=5	=5
16CCKL 16C	(16ggLL	.
8CC 8C	16ccc	.
.	16ee	.
16CCJk 16C	16ggJJ)	.
16CCKL 16C	4cc^	.
8CC 8C	.	.
16CCJk 16C	.	.
!!linebreak:original
=6	=6	=6
16CCKL 16C	16r	.
8CC 8C	(16ELL	.
.	16G	.
16CCJk 16C	16B-JJ	.
16CCKL 16C	16cLL	.
8CC 8C	16e	.
.	16g	.
16CCJk 16C	16b-JJ)	.
=7	=7	=7
16CCKL 16C	(16aLL	.
8CC 8C	16cc	.
.	16f	.
16CCJk 16C	16aJJ)	.
16CCKL 16C	4c^	.
8CC 8C	.	.
16CCJk 16C	.	.
=8	=8	=8
16CCKL 16C	16r	.
8CC 8C	(16dLL	.
.	16f	.
16CCJk 16C	16a-XJJ)	.
16CCKL 16C	(16bnLL	.
8CC 8C	16dd	.
.	16ff	.
16CCJk 16C	16aa-XJJ)	.
=9	=9	=9
8.CCL 8.C	8.ccL 8.ccc	.
16GGJk	16ggJk	.
16CKL	16ccKL 16ccc	.
8C	8cc 8ccc	.
16GGJk	16ggJk	.
=10	=10	=10
8.CL	8.ccL 8.ccc	.
16GJk	16gJk	.
16cKL	16ccKL	.
8c	8cc	.
16GJk	16gJk	.
=11	=11	=11
4C	[2cc	.
16CKL	.	.
8C	.	.
16CJk	.	.
!!linebreak:original
=12	=12	=12
4C	4cc]	.
4C	4r	.
=13!|:	=13!|:	=13!|:
8c^L	4.b-^ 4.ee 4.aa	f
8C^J	.	.
8CC^L	.	.
8C^J	8b-^ 8ee 8gg	.
=14	=14	=14
16FFKL	16a^KL 16cc 16gg	.
8A 8c 8f	8a^ 8cc 8ff	.
16AJk 16c	16fJk 16a	.
8AL 8c 8f	4a 4cc	.
8AJ 8c 8f	.	.
=15	=15	=15
16CKL	16r	.
8B- 8c 8e	8gL	.
16B-Jk 16c 16e	16aJk	.
.	(8qqcc/	.
16B-KL 16c 16e	16b-KL)	.
8B- 8c 8e	8a	.
16B-Jk 16c 16e	16gJk	.
=16	=16	=16
8CL	8ccL	.
16AL 16c	16fL 16a	.
16AJJ 16c	16fJJ 16a	.
8AL 8c 8f	4a 4cc	.
8AJ 8c 8f	.	.
=17	=17	=17
(8CL	8r	.
8E	4b-^ 4ee 4aa	f
8G	.	.
8B-J)	8b-^ 8ee 8gg	.
=18	=18	=18
16cKL	16a^KL 16cc 16gg	.
8A	8a^ 8cc 8ff	.
16FJk	16fJk 16a	.
8CL	4a 4cc	.
8AAJ	.	.
!!linebreak:original
=19	=19	=19
16GGKL	16r	.
8G 8Bn 8f	8bnL 8gg	.
16GJk 16B 16f	16aaJk	.
16GKL 16B 16f	16ggKL	.
8G 8B 8f	8dd	.
16GJk 16B 16f	16ffJk	.
=20	=20	=20
8c^L	8gL 8ee	.
8GG^J	8fJ 8dd	.
8C	8e 8cc	.
8r	8r	.
=21	=21	=21
8c^L	4.b-^ 4.ee 4.aa	.
8C^J	.	.
8CC^L	.	.
8C^J	8b-^ 8ee 8gg	.
=22	=22	=22
16FFKL	16a^KL 16cc 16gg	.
8A 8c 8f	8a^ 8cc 8ff	.
16AJk 16c	16fJk 16a	.
8AL 8c 8f	4a 4cc	.
8AJ 8c 8f	.	.
=23	=23	=23
16CKL	16r	.
8B- 8c 8e	8gL	.
16B-Jk 16c 16e	16aJk	.
.	(8qcc/	.
16B-KL 16c 16e	16b-KL)	.
8B- 8c 8e	8a	.
16B-Jk 16c 16e	16gJk	.
=24	=24	=24
8CL	8ccL	.
16AL 16c	16fL 16a	.
16AJJ 16c	16fJJ 16a	.
8AL 8c 8f	4a 4cc	.
8AJ 8c 8f	.	.
!!linebreak:original
=25	=25	=25
16FFKL	16r	.
8A 8c 8f	8aL	.
16AJk 16c 16f	16b-Jk	.
8AL 8c 8f	(16ccLL	.
.	16a	.
8AJ 8c 8f	16b-	.
.	16ccJJ)	.
=26	=26	=26
8GGL	8ddL	.
8GJ 8B- 8d	8b-J 8dd	.
8B-L 8d 8g	4b- 4dd	.
8GJ 8B- 8d	.	.
=27	=27	=27
16CKL	16r	.
8B- 8c 8e	8eeL	.
16B-Jk 16c 16e	16ffJk	.
8EL	(16aaLL	.
.	16gg	.
8B-J 8c 8e	16ee	.
.	16ccJJ)	.
=28	=28	=28
(16FFLL	2a 2ff	.
16Bn	.	.
16d	.	.
16cJJ	.	.
16ALL	.	.
16F	.	.
16D	.	.
16D-XJJ)	.	.
=29:|!	=29:|!	=29:|!
4FF	4a 4ff	.
8.FL	4f; 4a 4ee-X	.
16FFJk	.	.
=30!|:	=30!|:	=30!|:
*B-:	*B-:	*
*k[b-e-]	*k[b-e-]	*
!	!LO:TX:a:t=Fine	!
16BB-KL	16r	.
8F 8B- 8d	8fL	.
16FJk 16B- 16d	16ee-Jk	.
8FL 8B- 8d	(16ddLL	.
.	16a	.
8FJ 8B- 8d	16b-	.
.	16ddJJ	.
!!pagebreak:original
=31	=31	=31
16DKL	8.fL) 8.ff	.
8F 8B- 8d	.	.
16FJk 16B- 16d	16eenJk	.
8FL 8B- 8d	4ff	.
8FJ 8B- 8d	.	.
=32	=32	=32
16BB-KL	16r	.
8F 8B- 8d	(8eenL	.
16FJk 16B- 16d	16ffJk	.
16FKL 16B- 16d	16ggKL	.
8F 8B- 8d	8ff	.
16FJk 16B- 16d	16ddJk)	.
=33	=33	=33
16EnKL	8.ccL	.
8G 8B- 8c	.	.
16GJk 16B- 16c	16gJk	.
8GL 8B- 8c	4cc	.
8GJ 8B- 8c	.	.
=34	=34	=34
8EnL	8r	.
8GJ 8B- 8c	8cc	.
8GL 8B- 8c	8bnL	.
8GJ 8B- 8c	8ccJ	.
=35	=35	=35
16E-KL	8.fL 8.ff	.
8F 8A 8e-	.	.
16FJk 16A 16e-	16ccJk	.
8FL 8A 8e-	4ff	.
8FJ 8A 8e-	.	.
=36	=36	=36
16E-KL	8r	.
8F 8A 8e-	.	.
.	8ff	.
16FJk 16A 16e-	.	.
8FL 8A 8e-	8ee-L 8aa	.
8FJ 8A 8e-	8ee-J 8gg	.
=37	=37	=37
16DKL	4b- 4dd	.
8F 8B- 8d	.	.
16FJk 16B- 16d	.	.
8FL 8B- 8d	4dd 4ff	.
8FJ 8B- 8d	.	.
!!linebreak:original
=38	=38	=38
16CKL	16r	.
8F 8A 8e-	8ee-L	.
16FJk 16A 16e-	16gJk	.
8FL 8A 8e-	8aL	.
8FJ 8A 8e-	8ccJ	.
=39	=39	=39
16BB-KL	8.fL	.
8F 8B- 8d	.	.
16FJk 16B- 16d	16ddJk	.
8FL 8B- 8d	4ff	.
8FJ 8B- 8d	.	.
=40	=40	=40
16BB-KL	16r	.
8F 8B- 8d	(8eenL	.
16FJk 16B- 16d	16ffJk	.
16FKL 16B- 16d	16ggKL	.
8F 8B- 8d	8ff	.
16FJk 16B- 16d	16ddJk	.
=41	=41	=41
16CKL	8.ccL)	.
8A 8c 8f	.	.
16AJk 16c 16f	16aJk	.
8AL 8c 8f	4cc	.
8AJ 8c 8f	.	.
=42	=42	=42
8CL	8r	.
8AJ 8c 8f	8cc	.
8AL	8ffL	.
8cJ 8f	8ddJ	.
=43	=43	=43
16GKL	8.eenL	.
8B- 8c 8en	.	.
16B-Jk 16c 16e	16ggJk	.
8B-L 8c 8e	4ccc	.
8B-J 8c 8e	.	.
!!linebreak:original
=44	=44	=44
16CKL	16r	.
8B- 8c 8en	(16bb-LL	.
.	16gg	.
16B-Jk 16c 16e	16eenJJ	.
8B-L 8c 8e	16ccLL	.
.	16b-	.
8B-J 8c 8e	16g	.
.	16enJJ	.
=45	=45	=45
16FFKL	8.fL)	.
8F 8A 8e-	.	.
16FJk 16A 16e-	16ccJk	.
8FL 8A 8e-	4ff	.
8FJ 8A 8e-	.	.
=46	=46	=46
16BB-KL	16r	.
8F 8B- 8d	8fL	.
16FJk 16B- 16d	(16ee-Jk	.
8FL 8B- 8d	16ddLL	.
.	16a	.
8FJ 8B- 8d	16b-	.
.	16ddJJ	.
=47	=47	=47
16BB-KL	8.fL) 8.ff	.
8F 8B- 8d	.	.
16FJk 16B- 16d	16eenJk	.
8FL 8B- 8d	4ff	.
8FJ 8B- 8d	.	.
=48	=48	=48
16BB-KL	16r	.
8F 8B- 8d	(8eenL	.
16FJk 16B- 16d	16ffJk	.
16FKL 16B- 16d	16ggKL	.
8F 8B- 8d	8ff	.
16FJk 16B- 16d	16ddJk	.
=49	=49	=49
16EnKL	8.ccL)	.
8G 8B- 8c	.	.
16GJk 16B- 16c	16gJk	.
8GL 8B- 8c	4cc	.
8GJ 8B- 8c	.	.
!!linebreak:original
=50	=50	=50
16EnKL	8r	.
8G 8B- 8c	.	.
.	8cc	.
16GJk 16B- 16c	.	.
8GL 8B- 8c	8bnL	.
8GJ 8B- 8c	8ccJ	.
=51	=51	=51
16E-KL	8.fL 8.ff	.
8F 8A 8e-	.	.
16FJk 16A 16e-	16ccJk	.
8FL 8A 8e-	4ff	.
8FJ 8A 8e-	.	.
=52	=52	=52
16E-KL	8r	.
8F 8A 8e-	.	.
.	8ff	.
16FJk 16A 16e-	.	.
8FL 8A 8e-	8ee-L 8aa	.
8FJ 8A 8e-	8ee-J 8gg	.
=53	=53	=53
16DKL	4b- 4dd	.
8F 8B- 8d	.	.
16FJk 16B- 16d	.	.
8FL 8B- 8d	4dd 4ff	.
8FJ 8B- 8d	.	.
=54	=54	=54
16CKL	16r	.
8F 8A 8e-	8ee-L	.
16FJk 16A 16e-	16gJk	.
8FL 8A 8e-	8aL	.
8FJ 8A 8e-	8ccJ	.
=55	=55	=55
16BB-KL	8.fL	.
8F 8B- 8d	.	.
16FJk 16B- 16d	16ddJk	.
8FL 8B- 8d	4ff	.
8FJ 8B- 8d	.	.
=56	=56	=56
16A-XKL	16r	.
8B- 8d 8a-X	(8eenL	.
16B-Jk 16d 16a-	16ffJk	.
8B-L 8d 8a-	16ggKL	.
.	8ff	.
8B-J 8d 8a-	.	.
.	16b-Jk)	.
!!linebreak:original
=57	=57	=57
16GKL	4bb-	.
8B- 8e- 8g	.	.
16B-Jk 16e- 16g	.	.
.	(8qaa/	.
8B-L 8e- 8g	4bb-)	.
8B-J 8e- 8g	.	.
=58	=58	=58
16G-XKL	16r	.
8B- 8e- 8g-X	8bb-L	.
16B-Jk 16e- 16g-	16bb-Jk	.
8B-L 8e- 8g-	8b-L	.
8B-J 8e- 8g-	8ccJ	.
=59	=59	=59
16FKL	16ddKL	.
8B- 8d 8f	8cc#X	.
16B-Jk 16d 16f	16ddJk	.
8EnL	8aaL	.
8GJ 8B- 8c	8ggJ	.
=60	=60	=60
16E-KL	16ffKL	.
8F 8A 8e-	8ee-	.
16FJk 16A 16e-	16gJk	.
8FL 8A 8e-	8aL	.
8FJ 8A 8e-	8ffJ	.
=61	=61	=61
16DKL	4f 4b- 4dd 4ff	.
8F	.	.
16B-Jk	.	.
8A	8f 8a 8ee- 8ff	.
8r	8r	.
=62:|!	=62:|!	=62:|!
16BB-KL	2f 2b- 2dd 2ff	.
8D	.	.
16FJk	.	.
4B-	.	.
==	==	==
*-	*-	*-
!!!system-decoration: {(s1,s2)}
!!!AGN: Tango
!!!EED: Florian Moldaschl
!!!END: 2025/12/23
!!!ENC: Florian Moldaschl
!!!EEV: 2026/01/14
!!!title: @{OPR}, @{SCT} №@{ONM}